packages/tokens/icons/thoughtLeadership/size32Px.svg

<svg viewBox="0 0 32 32" fill="none" xmlns="http://www.w3.org/2000/svg" width="1em" height="1em"><path d="M5.5 27.4444L5.5 26.5C5.5 25.3954 6.39543 24.5 7.5 24.5H10.5" stroke="currentColor" stroke-linecap="round"/><path d="M11.5 20.5C11.5 21.6046 10.6046 22.5 9.5 22.5C8.39543 22.5 7.5 21.6046 7.5 20.5C7.5 19.3954 8.39543 18.5 9.5 18.5C10.6046 18.5 11.5 19.3954 11.5 20.5Z" stroke="currentColor" stroke-linecap="round" stroke-linejoin="round"/><path d="M26.5 27.4444V26.5C26.5 25.3954 25.6046 24.5 24.5 24.5H21.5556" stroke="currentColor" stroke-linecap="round"/><path d="M20.5 20.5C20.5 21.6046 21.3955 22.5 22.5 22.5C23.6046 22.5 24.5 21.6046 24.5 20.5C24.5 19.3954 23.6046 18.5 22.5 18.5C21.3955 18.5 20.5 19.3954 20.5 20.5Z" stroke="currentColor" stroke-linecap="round" stroke-linejoin="round"/><path d="M11.5 29.5001L11.5 28.5001C11.5 27.3955 12.3954 26.5001 13.5 26.5001H18.5C19.6046 26.5001 20.5 27.3955 20.5 28.5L20.5 29.5001" stroke="currentColor" stroke-linecap="round"/><path d="M18.5 21C18.5 22.3807 17.3807 23.5 16 23.5C14.6193 23.5 13.5 22.3807 13.5 21C13.5 19.6193 14.6193 18.5 16 18.5C17.3807 18.5 18.5 19.6193 18.5 21Z" stroke="currentColor" stroke-linecap="round" stroke-linejoin="round"/><path d="M15 14.5C15 15.0523 15.4477 15.5 16 15.5C16.5523 15.5 17 15.0523 17 14.5" stroke="currentColor" stroke-linecap="round" stroke-linejoin="round"/><path d="M19.5 8.55C19.5 9.70833 18.9538 10.7354 18.109 11.3834C17.8291 11.5981 17.5309 11.8663 17.3128 12.2201L17.2686 12.2918C16.9972 12.732 16.5171 13 16 13C15.4829 13 15.0028 12.732 14.7314 12.2918L14.6872 12.2201C14.4691 11.8663 14.1709 11.5981 13.891 11.3834C13.0462 10.7354 12.5 9.70833 12.5 8.55C12.5 6.58351 14.0728 5 16 5C17.9272 5 19.5 6.58351 19.5 8.55Z" stroke="currentColor"/><path d="M10.5 7.5L10 7.5" stroke="currentColor" stroke-linecap="round"/><path d="M11.5 5L11 4.5" stroke="currentColor" stroke-linecap="round"/><path d="M22 7.5L21.5 7.5" stroke="currentColor" stroke-linecap="round"/><path d="M21 4.5L20.5 5" stroke="currentColor" stroke-linecap="round"/><path d="M16 3.5L16 3" stroke="currentColor" stroke-linecap="round"/></svg>

<svg xmlns="http://www.w3.org/2000/svg" fill="none" viewBox="0 0 32 32" width="1em" height="1em"><path stroke="currentColor" stroke-linecap="round" d="M5.5 27.444V26.5a2 2 0 0 1 2-2h3"/><path stroke="currentColor" stroke-linecap="round" stroke-linejoin="round" d="M11.5 20.5a2 2 0 1 1-4 0 2 2 0 0 1 4 0Z"/><path stroke="currentColor" stroke-linecap="round" d="M26.5 27.444V26.5a2 2 0 0 0-2-2h-2.944"/><path stroke="currentColor" stroke-linecap="round" stroke-linejoin="round" d="M20.5 20.5a2 2 0 1 0 4 0 2 2 0 0 0-4 0Z"/><path stroke="currentColor" stroke-linecap="round" d="M11.5 29.5v-1a2 2 0 0 1 2-2h5a2 2 0 0 1 2 2v1"/><path stroke="currentColor" stroke-linecap="round" stroke-linejoin="round" d="M18.5 21a2.5 2.5 0 1 1-5 0 2.5 2.5 0 0 1 5 0ZM15 14.5a1 1 0 1 0 2 0"/><path stroke="currentColor" d="M19.5 8.55a3.56 3.56 0 0 1-1.391 2.833c-.28.215-.578.483-.796.837l-.044.072a1.49 1.49 0 0 1-2.538 0l-.044-.072c-.218-.354-.516-.622-.796-.837A3.56 3.56 0 0 1 12.5 8.55C12.5 6.584 14.073 5 16 5s3.5 1.584 3.5 3.55Z"/><path stroke="currentColor" stroke-linecap="round" d="M10.5 7.5H10M11.5 5l-.5-.5m11 3h-.5m-.5-3-.5.5M16 3.5V3"/></svg>
